!!!OTL: Die Brombeerpflueckerin
!!!OTL-incipit:Es wollt ein Maedel in der Frueh aufstehn
!!!ARE: Europa, Mitteleuropa, Deutschland / France, Lothringen, Forbach, Bousbach
!!!YOR: 7, S. 79
!!    1980 aufgezeichnet
!!!SCT: Q0147E
!!!TXL: @@DE
!!!YEM: Copyright 1995, estate of Helmut Schaffrath.
**kern	**text
*ICvox	*
*M4/4	*
*k[f#]	*
*G:	*
{4d	1._Es
=1	=1
4g	wollt
4g	ein
8gL	Mä-
8gJ	-del
8eL	in
8eJ	der
=2	=2
4e	Früh
4d	auf-
4d}	-stelm
{4d	drei-
=3	=3
4d	-vier-
4cc	-tel
4b	Stund
4a	vor
=4	=4
4g	Tag,
4r	.
4r}	.
{8gL	woll-
8aJ	-te
=5	=5
4.b	in
8g	den
4.b	Wald
8dd	spa-
=6	=6
4dd	-zie-
4cc	-ren
4a	gehn,
8r}	.
{8dd	hal-
=7	=7
4.dd	-li
8dd	hal-
4.dd	-lo,
8cc	spa-
=8	=8
4cc	-zie-
4b	-ren
4g}	gehn,
{8bL	woll-
8bJ	-te
=9	=9
4b	Brom-
4a	-beern
4d	pflük-
4f#	-ken
=10	=10
(<4g	gehn,
4a	.
4b)}	.
{8gL	woll-
8aJ	-te
=11	=11
4b	in
8r	.
8b	den
4b	Wald
8r	.
8dd	spa-
=12	=12
4dd	-zie-
4cc	-ren
4a	gehn,
8r}	.
{8dd	hal-
=13	=13
4.dd	-li
8dd	hal-
4.dd	-lo,
8dd	spa-
=14	=14
4dd	-zie-
4cc	-ren
4b}	gehn
{8dL	woll-
8ccJ	-te
=15	=15
4b	Brom-
4b	-beern
4cc	pflük-
4f#	-ken
=16	=16
8.gL	ab,
16gJ	wohl
8bL	in
8aJ	den
4g}	Wald.
==	==
!!!AGN: Ballade, Verfuehrung, Schwangerschaft
!! Transkription einer Tonaufnahme. Verzierung (Glissando) .
!!    Vierte und siebte Zeile refrainartig.
!!!ONB: ESAC (Essen Associative Code) Database: BALLADE
!!!AMT: simple quadruple
!!!AIN: vox
!!!EED: Helmut Schaffrath
!!!EEV: 1.0
!!@@COMMENT:"4 215024. Vors.: Joseph Meyer.
!!Bousbach/Forbach. Lothringen, 1980."
!!@@END:
!!!source: Deutsche Volkslieder mit ihren Melodien Balladen. Herausgegeben vom Deutschen Volksliedarchiv. Siebenterer Band. Freiburg/Breisgau 1982.
!!!page: 79
!!!ENC: Anna Maria Matuszewska
!!!EEV: 2025/03/07
*-	*-
